!!!!SEGMENT: pl-kk--i-540--001-004_rychling-wincenty-waclaw--kompleta-no-iii-hymn-te-lucis-ante-terminum.krn
!!!cenid: 18xx:4464
!!!COM: Rychling, Wincenty Wacław
!!!COM-rismID: pe50046026
!!!CDT: 1841/01/09-1896/01/11
!!!CNT: Polish
!!!GTL: Kompleta
!!!OTL: No. III. Hymn. Te lucis ante terminum
!!!OMV: 004
!!!PDT:
!!!AGN: Sacred; Hymns
!!!YEC: Copyright 2022 Narodowy Instytut Fryderyka Chopina (https://polishscores.org)
!!!YEM: License CC-BY-4.0 (https://creativecommons.org/licenses/by/4.0)
!!!SMS-siglum: PL-Kk
!!!SMS-shelfmark: I.540
!!!SMS-variant: Partytura PL-Kk I.540:3
!!!SMS-altvar: Tenor I PL-Kk I.540:9; Tenor II PL-Kk I.540:11; Bas I PL-Kk I.540:13; Bas II PL-Kk I.540:15
!!!SMS-shelfwork: 001-004 G
!!!NIFC-rismSourceID: 1001210701
!!!NIFC-rismChildID: 1001210712
!!!NIFC-islandoraID: pl-kk:16958
!!!URL-pdf-islandora: https://repozytorium.nifc.pl/islandora/object/pl-kk%3A16958/datastream/PDF/view
!!!URL-scan: https://polish.musicsources.pl/pl/lokalizacje/galeria/rekopisy/7167/3 @EN{Scan on Polish Music Sources Website} @PL{Skany w portalu Dziedzictwo Muzyki Polskiej w otwartym dostępie}
!!!IIIF:
!!!ONB-nifc: UWAGA: wg partytury, skan 3. Proszę uzupełnić SMS:variant (partytura) i SMS:altvar (głosy) wg instrukcji w wątku #53.
!!!OMD:
!!!AIN: 2 male
!!!key: g
**kern	**text	**kern	**text
*part2	*part2	*part1	*part1
*staff2	*staff2	*staff1	*staff1
*I"[Voice]	*	*I"[Voice]	*
*Imale	*	*Imale	*
*ICvox	*	*ICvox	*
*clefF4	*	*clefG2	*
*	*	*ITrd8c12	*
*k[b-e-]	*	*k[b-e-]	*
*g:	*	*g:	*
*M2/2	*	*M2/2	*
*met(c|)	*	*met(c|)	*
=1	=1	=1	=1
*^	*	*^	*
*	*2\right	*	*	*2\right	*
!!LO:TX:t=P:problem=all/left
!!LO:TX:t=P:problem=all\right
2G/	2G\	.	2G/	2G\	Te
4G/	4E-\	.	4B-/	4G\	lu-
4E-/	4E-\	.	4c/	4G\	-cis
=2	=2	=2	=2	=2	=2
2D/	2BB-\	.	2d/	2G\	an-
2D/	2BB-\	.	2G/	2G\	-te
=3	=3	=3	=3	=3	=3
1D	1D	.	4A/	4F#X\	ter-
.	.	.	4B-/	4G\	.
.	.	.	4c/	4A\	.
.	.	.	4B-/	4G\	.
=4	=4	=4	=4	=4	=4
4D/	4D\	.	4A/	4F#X\	-mi-
4D/	4D\	.	4G/	4E\	.
2D/	2D;\	.	2A;/	2F#\	-num
!!LO:LB:g=original
=5	=5	=5	=5	=5	=5
2A/	2AA\	.	2c/	2Fn\	Re-
4F/	4BB-\	.	4d/	4B-\	-rum
4B-/	4BB-\	.	4f/	4d\	.
=6	=6	=6	=6	=6	=6
2A/	2F\	.	2f/	2c\	Cre-
4A/	4D\	.	4f/	4d\	-a-
4F/	4AA\	.	4e-/	4c\	-tor
=7	=7	=7	=7	=7	=7
2.F/	4BB-\	.	4d/	4B-\	po-
.	4F\	.	4c/	4A\	.
.	4D\	.	4d/	4B-\	.
4B-/	4BB-\	.	4f/	4d\	.
=8	=8	=8	=8	=8	=8
4A-X/	4BBn\	.	4f/	4d\	-sci-
4G/	4C\	.	4e/	4c\	.
2An/	2F;\	.	2f;/	2c\	-mus
=9	=9	=9	=9	=9	=9
4F/	4F\	.	4c/	4A\	Ut
4A/	4F\	.	8c/L	4c\	.
.	.	.	8f/J	.	.
4En/	4C\	.	4g/	4c\	so-
4G/	4C\	.	4e/	4c\	-li-
!!LO:LB:g=original
=10	=10	=10	=10	=10	=10
4F/	4D\	.	4f/	2A\	-ta
4G/	4AA\	.	4e/	.	.
4F/	4D\	.	4d/	2A\	cle-
4G/	4En\	.	4c#X/	.	.
=11	=11	=11	=11	=11	=11
2F/	2D\	.	2d/	2A\	-men-
2F/	4D\	.	4A/	2A\	-ti-
.	4AA\	.	4cn/	.	.
=12	=12	=12	=12	=12	=12
2F/	2BB-\	.	2d/	2F\	-a
2E-/	2E-X;\	.	2G;/	2G\	.
=13	=13	=13	=13	=13	=13
2F/	2D\	.	2B-/	2F\	Sis
2F/	4D\	.	4B-/	2F\	pre-
.	4BB-\	.	4d/	.	-sul
=14	=14	=14	=14	=14	=14
2F/	4AA\	.	4e-X/	4c\	ad
.	4BB-\	.	4d/	4B-\	.
4E-/	4C\	.	4c/	4A\	cus-
4D/	4D\	.	4A/	4F#X\	.
!!LO:LB:g=original
=15	=15	=15	=15	=15	=15
2D/	4GG\	.	2B-/	2G\	-to-
.	4G\	.	.	.	.
4E-\	4C\	.	4c/	4A\	-di-
4En/	4C#X\	.	4B-/	4G\	.
=16	=16	=16	=16	=16	=16
4.A/	1D;	.	1A;	1F#X	-am
8F#X/	.	.	.	.	.
2D/	.	.	.	.	.
*v	*v	*	*	*	*
*	*	*v	*v	*
==	==	==	==
*-	*-	*-	*-
!!!system-decoration: {(s1,s2)}
!!!ENC: Andrzej Gręziak
!!!END: 2023-10-27
!!!EED: Marta Chmielewska
!!!EEV: 2024-04-18
